X:1
T:Title
%%score { 1 | ( 2 3 ) }
L:1/8
M:4/4
K:G
V:1 treble nm="Grand Piano"
V:2 bass 
V:3 bass 
V:1
 z4 z2[Q:1/4=100] DD | [B,G]2 [DB][CA] [B,G]DB,D | [B,G] [B,G]2 [CA] [DB]2 cB | A2 AB AEFG | %4
 [^CB] [CA]2 G A2 BA | [B,G]2 [B,G][CA] [B,G]DB,D | [B,G] [B,G]2 [CA] B2 Bc |[M:3/4] d2 de dB | %8
[M:1/4] [^CGA][CG] |[M:3/4] [DGB]2 [DFB]>[CFA] [B,DG]2 |[M:1/4] Bc |[M:4/4] d2 d>e d2 GA | %12
 B B2 c B2 GB |[M:9/8] [EA][EG][DF] EDd- d2 .[EGc] |[M:3/4] [DGB]2 [DFB]>[CFA] [B,DG]2 |] %15
V:2
 z4 z2 D,D, | [G,,D,]2 [G,,G,][G,,D,] [G,,D,]D,B,,D, | %2
 [G,,D,] [G,,D,]2 [G,,D,] [G,,G,]2 [F,A,D][G,D] | %3
 [D,F,D]2 [D,F,D][D,G,D] [D,F,D][G,A,^C][F,A,D][E,A,C] | %4
 [A,,G,] [A,,G,]2 [E,G,^C] [D,F,=C]2 [D,D][D,C] | [G,,D,]2 [G,,D,][G,,D,] [G,,D,]D,B,,D, | %6
 [G,,D,] [G,,D,]2 [G,,D,][K:treble] [G,D]2 [G,D][G,A,D] | %7
[M:3/4] [G,B,G]2 [G,B,G][G,CG] [G,B,G][G,DG] |[M:1/4][K:bass] E,E, |[M:3/4] D,2 D,>D, G,,2 | %10
[M:1/4][K:treble] [G,D][G,A,D] |[M:4/4] [G,B,D]2 [G,B,G]>[G,CG] [G,B,G]2 [G,B,][G,CG] | %12
 [G,DG] [G,DG]2 [G,EG] [G,DG]2 [G,B,D][G,DG] | %13
[M:9/8][K:bass] [C,C][C,C][C,G,] [C,G,C][G,B,][G,B,D]- [G,B,D]2 z/ G/ |[M:3/4] D,2 D,>D, G,,2 |] %15
V:3
 x8 | x8 | x8 | x8 | x8 | x8 | x4[K:treble] x4 |[M:3/4] x6 |[M:1/4][K:bass] x2 |[M:3/4] x6 | %10
[M:1/4][K:treble] x2 |[M:4/4] x8 | x8 |[M:9/8][K:bass] z3 z3 z2 C, |[M:3/4] x6 |] %15

